X:71
T:Four Seasons: Winter (2. Largo)
C:Antonio Vivaldi (RV.297, Op.8, No.4)
N:Arranged for Mandolin & TablEdited by Wendy Anthony 10 Nov 2004
L:1/8
Q:1/4=40
M:4/4
K:Eb
eb/a/ gf/e/ fB2B | a/g/f/e/ da a/8b/8a/8b/8a/8b/8a/8b/8g2g | fg/a/ bc'/d'/ ef/g/ ab/c'/ | 
de/f/ ga/b/ cd/e/ fg/e/ | d2 z/B/=A/B/ f2 z/B/A/B/ | g2 z/B/=A/B/ =a2 z/f/e/f/ | 
bB2b b/=a/g/f/ e/d/c/B/ | dc/8d/8c/8d/8c/8d/8c/8d/8 c/8d/8c/8d/8c/8d/8c/8d/8B B4 | 
Bf/e/ dc/B/ cF2F | e/d/c/B/ =Ae e/8f/8e/8f/8e/8f/8e/8f/8d2B | a/g/f/e/ da a/8b/8a/8b/8a/8b/8a/8b/8g2g | 
cd/e/ fg/a/ de/f/ ga/b/ | ef/g/ ab/c'/ d3d/e/ | f/d/c/B/ g/a/b/g/ fB2d/e/ | f/d/c/B/ g/a/b/g/ fB2f/b/ | 
gf/e/ d/8e/8d/8e/8d/8e/8d/8e/8d/8e/8d/8e/8e/ [e2G2] z2 | z8 | 
 
